X: 34078
T: Reel De Napoleon
R: reel
M: 4/4
K: Cmajor
|:G|EGGc AFAF|EGdc Bcdf|ecc2 AFAF|EGdB c3G|
EFGc AFAF|EGdc Bcdf|ecc2 AFF2|EGdB c3:|
|:e|gcac gcea|g2ec Bddf|ecca gedc|BGAB cBce|
gcac gcea|g2ec Bddf|ecGc AFAF|EGdB c3:|

